src/pos-icons/file-link.svg

<svg height="24" viewBox="0 0 24 24" width="24" xmlns="http://www.w3.org/2000/svg"><path d="m14 2h-8c-1.11 0-2 .89-2 2v16c0 1.11.89 2 2 2h12c1.11 0 2-.89 2-2v-12zm-3 18h-1c-1.61 0-4-1.06-4-4 0-2.93 2.39-4 4-4h1v2h-1c-.46 0-2 .17-2 2 0 1.9 1.67 2 2 2h1zm4-5v2h-6v-2zm-1 5h-1v-2h1c.46 0 2-.17 2-2 0-1.9-1.67-2-2-2h-1v-2h1c1.61 0 4 1.07 4 4 0 2.94-2.39 4-4 4m-1-11v-5.5l5.5 5.5z"/></svg>

<?xml version="1.0" encoding="UTF-8"?><!DOCTYPE svg PUBLIC "-//W3C//DTD SVG 1.1//EN" "http://www.w3.org/Graphics/SVG/1.1/DTD/svg11.dtd"><svg xmlns="http://www.w3.org/2000/svg" xmlns:xlink="http://www.w3.org/1999/xlink" version="1.1" id="mdi-file-link" width="24" height="24" viewBox="0 0 24 24"><path d="M14 2H6C4.89 2 4 2.89 4 4V20C4 21.11 4.89 22 6 22H18C19.11 22 20 21.11 20 20V8L14 2M11 20H10C8.39 20 6 18.94 6 16C6 13.07 8.39 12 10 12H11V14H10C9.54 14 8 14.17 8 16C8 17.9 9.67 18 10 18H11V20M15 15V17H9V15H15M14 20H13V18H14C14.46 18 16 17.83 16 16C16 14.1 14.33 14 14 14H13V12H14C15.61 12 18 13.07 18 16C18 18.94 15.61 20 14 20M13 9V3.5L18.5 9H13Z" /></svg>
